packages/ffe-icons/icons/filled/md/remember_me.svg

<svg xmlns="http://www.w3.org/2000/svg" height="24" viewBox="0 -960 960 960" width="24"><path d="M292.309-60.002q-29.827 0-51.067-21.24-21.241-21.24-21.241-51.067v-695.382q0-29.827 21.241-51.067 21.24-21.241 51.067-21.241h375.382q29.827 0 51.067 21.241 21.241 21.24 21.241 51.067v695.382q0 29.827-21.241 51.067-21.24 21.24-51.067 21.24H292.309ZM480-400q54 0 104.5 13.101t95.5 37.207v-380.309H280v380.309q45-24.106 95.5-37.207Q426-400 480-400Zm.045-50.001q-45.814 0-77.929-32.07t-32.115-77.884q0-45.814 32.07-77.929t77.884-32.115q45.814 0 77.929 32.07t32.115 77.884q0 45.814-32.07 77.929t-77.884 32.115Z"/></svg>

<svg xmlns="http://www.w3.org/2000/svg" height="24" viewBox="0 -960 960 960" width="24"><path d="M292.31-60q-29.83 0-51.07-21.24Q220-102.48 220-132.31v-695.38q0-29.83 21.24-51.07Q262.48-900 292.31-900h375.38q29.83 0 51.07 21.24Q740-857.52 740-827.69v695.38q0 29.83-21.24 51.07Q697.52-60 667.69-60H292.31ZM480-400q54 0 104.5 13.1t95.5 37.21V-730H280v380.31q45-24.11 95.5-37.21Q426-400 480-400Zm.05-50q-45.82 0-77.93-32.07Q370-514.14 370-559.95q0-45.82 32.07-77.93Q434.14-670 479.95-670q45.82 0 77.93 32.07Q590-605.86 590-560.05q0 45.82-32.07 77.93Q525.86-450 480.05-450Z"/></svg>
